assets/amenitiesIcons/securityGuard.svg

<?xml version="1.0" encoding="utf-8"?><!-- Uploaded to: SVG Repo, www.svgrepo.com, Generator: SVG Repo Mixer Tools -->
<svg width="800px" height="800px" viewBox="0 0 48 48" fill="none" xmlns="http://www.w3.org/2000/svg">
<path fill-rule="evenodd" clip-rule="evenodd" d="M17.1479 31.169C17.0589 31.168 16.9685 31.178 16.8786 31.1999C11.4745 32.5182 6 35.2061 6 39.2498V44H42V39.2498C42 35.2061 36.5255 32.5182 31.1214 31.1999C31.0315 31.178 30.9411 31.168 30.8521 31.169L24 39L17.1479 31.169ZM35 37.3333C35 37.3333 33.6667 36.6667 33 36C32.3333 36.6667 31 37.3333 31 37.3333C31 37.3333 31.6983 40 33 40C34.3017 40 35 37.3333 35 37.3333Z" fill="#333333"/>
<path d="M25.5 29H22.5C21.9477 29 21.5 29.4477 21.5 30V31.5858C21.5 31.851 21.6054 32.1054 21.7929 32.2929L22.5 33L21.5 36.5L24 41.5L26.5 36.5L25.5 32.5L25.9472 32.2764C26.286 32.107 26.5 31.7607 26.5 31.382V30C26.5 29.4477 26.0523 29 25.5 29Z" fill="#333333"/>
<path fill-rule="evenodd" clip-rule="evenodd" d="M15 18V15H17V18C17 21.866 20.134 25 24 25C27.866 25 31 21.866 31 18V15H33V18C33 22.9706 28.9706 27 24 27C19.0294 27 15 22.9706 15 18Z" fill="#333333"/>
<path fill-rule="evenodd" clip-rule="evenodd" d="M13.6884 12C13.6124 11.8803 13.5349 11.76 13.457 11.6388L13.4569 11.6388C12.7488 10.5389 12 9.37587 12 8.09677C12 7.29597 12.5203 6.62166 13.209 6.08848C15.769 4.10661 24 3 24 3C24 3 32.231 4.10662 34.791 6.08848C35.4797 6.62166 36 7.29597 36 8.09677C36 9.55508 35.1742 10.8143 34.3907 12H13.6884ZM22 8C22 6.89543 22.8954 6 24 6C25.1046 6 26 6.89543 26 8C26 9.10457 25.1046 10 24 10C22.8954 10 22 9.10457 22 8Z" fill="#333333"/>
<path fill-rule="evenodd" clip-rule="evenodd" d="M14.0214 14.4106C14.0668 14.1728 14.2845 14 14.5386 14H33.4614C33.7155 14 33.9332 14.1728 33.9786 14.4106L33.9788 14.4118L33.9791 14.413L33.9796 14.4159L33.9808 14.4227L33.9837 14.4409C33.9858 14.455 33.9882 14.4731 33.9905 14.4948C33.9951 14.5383 33.9993 14.5967 33.9999 14.6678C34.0011 14.8101 33.988 15.0048 33.9341 15.2341C33.8251 15.6976 33.5533 16.2868 32.9308 16.8594C31.6967 17.9946 29.1612 19 24 19C18.8388 19 16.3033 17.9946 15.0692 16.8594C14.4467 16.2868 14.1749 15.6976 14.0659 15.2341C14.012 15.0048 13.9989 14.8101 14.0001 14.6678C14.0007 14.5967 14.0049 14.5383 14.0095 14.4948C14.0118 14.4731 14.0142 14.455 14.0163 14.4409L14.0192 14.4227L14.0204 14.4159L14.0209 14.413L14.0212 14.4118L14.0214 14.4106Z" fill="#333333"/>
</svg>

<svg xmlns="http://www.w3.org/2000/svg" width="800" height="800" fill="none" viewBox="0 0 48 48"><path fill="#333" fill-rule="evenodd" d="M17.148 31.169a1.086 1.086 0 0 0-.27.03C11.476 32.52 6 35.207 6 39.25V44h36v-4.75c0-4.044-5.474-6.732-10.879-8.05a1.086 1.086 0 0 0-.269-.031L24 39l-6.852-7.831M35 37.333s-1.333-.666-2-1.333c-.667.667-2 1.333-2 1.333S31.698 40 33 40s2-2.667 2-2.667" clip-rule="evenodd"/><path fill="#333" d="M25.5 29h-3a1 1 0 0 0-1 1v1.586a1 1 0 0 0 .293.707L22.5 33l-1 3.5 2.5 5 2.5-5-1-4 .447-.224a1 1 0 0 0 .553-.894V30a1 1 0 0 0-1-1"/><path fill="#333" fill-rule="evenodd" d="M15 18v-3h2v3a7 7 0 1 0 14 0v-3h2v3a9 9 0 1 1-18 0M13.688 12l-.231-.361C12.749 10.539 12 9.376 12 8.097c0-.801.52-1.475 1.209-2.009C15.769 4.107 24 3 24 3s8.231 1.107 10.791 3.088C35.48 6.622 36 7.296 36 8.097c0 1.458-.826 2.717-1.61 3.903H13.689ZM22 8a2 2 0 1 1 4 0 2 2 0 0 1-4 0" clip-rule="evenodd"/><path fill="#333" fill-rule="evenodd" d="M14.021 14.41a.52.52 0 0 1 .518-.41H33.46a.52.52 0 0 1 .518.41v.006l.002.007.003.018.006.054c.005.043.01.102.01.173.001.142-.012.337-.066.566-.109.464-.38 1.053-1.003 1.625C31.697 17.995 29.16 19 24 19s-7.697-1.005-8.93-2.14c-.623-.573-.895-1.162-1.004-1.626a2.397 2.397 0 0 1-.066-.566 1.798 1.798 0 0 1 .016-.227l.003-.018.001-.007v-.003l.001-.001v-.001" clip-rule="evenodd"/></svg>
